assets/2023/icons/python.svg

<!-- Copyright 2000-2022 JetBrains s.r.o. and contributors. Use of this source code is governed by the Apache 2.0 license. -->
<svg width="16" height="16" viewBox="0 0 16 16" fill="none" xmlns="http://www.w3.org/2000/svg">
<path d="M7.9167 1.00011C7.33942 1.00277 6.78812 1.05146 6.30304 1.13636C4.87405 1.38606 4.6146 1.90869 4.6146 2.87252V4.14544H7.99148V4.56975H4.6146H3.34729C2.36587 4.56975 1.50652 5.15319 1.23772 6.26309C0.927672 7.53529 0.91392 8.32916 1.23772 9.65755C1.47776 10.6463 2.05101 11.3509 3.03243 11.3509H4.19348V9.82493C4.19348 8.72252 5.15785 7.75011 6.30304 7.75011H9.67598C10.6149 7.75011 11.3644 6.98549 11.3644 6.05288V2.87252C11.3644 1.96737 10.5924 1.28743 9.67598 1.13636C9.09589 1.04085 8.49398 0.997461 7.9167 1.00011ZM6.09051 2.0239C6.43932 2.0239 6.72417 2.31024 6.72417 2.66231C6.72417 3.01313 6.43932 3.29682 6.09051 3.29682C5.74045 3.29682 5.45685 3.01313 5.45685 2.66231C5.45685 2.31024 5.74045 2.0239 6.09051 2.0239Z" fill="url(#paint0_linear_1150_23815)"/>
<path d="M11.7854 4.5697V6.05283C11.7854 7.20268 10.7998 8.17048 9.67588 8.17048H6.30294C5.37904 8.17048 4.6145 8.95257 4.6145 9.86771V13.0481C4.6145 13.9532 5.41029 14.4856 6.30294 14.7453C7.37187 15.0562 8.39692 15.1124 9.67588 14.7453C10.526 14.5018 11.3643 14.0119 11.3643 13.0481V11.7751H7.99138V11.3508H11.3643H13.0528C14.0342 11.3508 14.3999 10.6738 14.7412 9.6575C15.0938 8.61127 15.0788 7.60516 14.7412 6.26304C14.4987 5.29672 14.0354 4.5697 13.0528 4.5697H11.7854ZM9.88841 12.6238C10.2385 12.6238 10.5221 12.9075 10.5221 13.2583C10.5221 13.6103 10.2385 13.8967 9.88841 13.8967C9.5396 13.8967 9.25476 13.6103 9.25476 13.2583C9.25476 12.9075 9.5396 12.6238 9.88841 12.6238Z" fill="url(#paint1_linear_1150_23815)"/>
<defs>
<linearGradient id="paint0_linear_1150_23815" x1="1" y1="1" x2="8.71457" y2="7.64655" gradientUnits="userSpaceOnUse">
<stop stop-color="#5A9FD4"/>
<stop offset="1" stop-color="#306998"/>
</linearGradient>
<linearGradient id="paint1_linear_1150_23815" x1="9.80726" y1="13.1513" x2="7.05423" y2="9.2508" gradientUnits="userSpaceOnUse">
<stop stop-color="#F4C20E"/>
<stop offset="1" stop-color="#FBDC3E"/>
</linearGradient>
</defs>
</svg>

<svg xmlns="http://www.w3.org/2000/svg" width="16" height="16" fill="none" viewBox="0 0 16 16"><path fill="url(#a)" d="M7.917 1a10 10 0 0 0-1.614.136c-1.429.25-1.688.773-1.688 1.737v1.272H7.99v.425H3.347c-.981 0-1.84.583-2.11 1.693-.31 1.272-.323 2.066 0 3.395.24.988.814 1.693 1.795 1.693h1.161V9.825c0-1.102.965-2.075 2.11-2.075h3.373c.939 0 1.688-.765 1.688-1.697v-3.18c0-.906-.772-1.586-1.688-1.737A11 11 0 0 0 7.916 1M6.09 2.024a.637.637 0 0 1 0 1.273.636.636 0 0 1 0-1.273"/><path fill="url(#b)" d="M11.785 4.57v1.483c0 1.15-.985 2.117-2.11 2.117H6.304c-.924 0-1.689.783-1.689 1.698v3.18c0 .905.796 1.438 1.689 1.697 1.069.311 2.094.367 3.373 0 .85-.243 1.688-.733 1.688-1.697v-1.273H7.991v-.424h5.062c.981 0 1.347-.677 1.688-1.694.353-1.046.338-2.052 0-3.394-.242-.966-.706-1.693-1.688-1.693zm-1.897 8.054a.636.636 0 0 1 0 1.273.637.637 0 0 1 0-1.273"/><defs><linearGradient id="a" x1="1" x2="8.715" y1="1" y2="7.647" gradientUnits="userSpaceOnUse"><stop stop-color="#5A9FD4"/><stop offset="1" stop-color="#306998"/></linearGradient><linearGradient id="b" x1="9.807" x2="7.054" y1="13.151" y2="9.251" gradientUnits="userSpaceOnUse"><stop stop-color="#F4C20E"/><stop offset="1" stop-color="#FBDC3E"/></linearGradient></defs></svg>
